client/public/game_modes/fireball/frame1.svg

<svg xmlns="http://www.w3.org/2000/svg" width="437" height="483" fill="none"><path fill="#FF5A00" d="M165.273 252.571v-21.142h105.454v21.142h21.091v21.143h21.091v21.143H334v105.714h-21.091v42.286h-42.182V464H165.273v-21.143h-42.182v-42.286H102V294.857h21.091v-21.143h21.091v-21.143h21.091Z"/><path fill="#FF9D00" d="M165.273 316h-21.091v21.143h-21.091v42.286h21.091v42.285h42.182v-42.285h-21.091v-42.286h42.182v-42.286h63.272v-21.143h-21.091v-21.143h-21.091v-21.142h-21.09v42.285h-21.091v-21.143h-21.091V316Zm147.636 63.429v-84.572h-21.091V316h-21.091v21.143h21.091v21.143h-21.091v42.285h-42.182v42.286h21.091v-21.143h42.182v-42.285h21.091Z"/><path fill="#FFD600" d="M228.545 442.857h-42.181v-63.428h-21.091v-42.286h42.182v-42.286h63.272v-21.143h21.091V316h-21.091v21.143h21.091v21.143h-21.091v42.285h-42.182v42.286Z"/><path fill="#FFF1CD" d="M207.455 379.429v-21.143h21.09V316h21.091v63.429h-42.181Z"/><path fill="#FF7A00" d="M165.273 273.714h-21.091v21.143h-21.091v42.286h21.091V316h21.091v-42.286Zm-42.182 148v-42.285h21.091v42.285h21.091v21.143h-42.182v-21.143Zm63.273-169.143v-21.142h21.091v42.285h-21.091v-21.143Zm63.272 190.286v-21.143h42.182v-42.285h21.091v63.428h-63.273Z"/><path fill="#FFBF00" d="M207.455 316v42.286h-21.091v21.143h-21.091v-42.286h21.091V316h21.091Zm21.09 105.714v21.143h-42.181v-42.286h21.091v21.143h21.09Zm63.273-126.857V316h-21.091v-42.286h21.091v21.143Zm-63.273 0V316h-21.09v-42.286h21.09v21.143Z"/></svg>

<svg width="437" height="483" viewBox="0 0 437 483" fill="none" xmlns="http://www.w3.org/2000/svg">
<path d="M165.273 252.571V231.429H270.727V252.571H291.818V273.714H312.909V294.857H334V400.571H312.909V442.857H270.727V464H186.364H165.273V442.857H123.091V400.571H102V294.857H123.091V273.714H144.182V252.571H165.273Z" fill="#FF5A00"/>
<path d="M165.273 316H144.182V337.143H123.091V379.429H144.182V400.571V421.714H186.364V379.429H165.273V358.286V337.143H186.364H207.455V316V294.857H270.727V273.714H249.636V252.571H228.545V231.429H207.455V273.714H186.364V252.571H165.273V316Z" fill="#FF9D00"/>
<path d="M312.909 379.429V294.857H291.818V316H270.727V337.143H291.818V358.286H270.727V400.571H228.545V421.714V442.857H249.636V421.714H291.818V400.571V379.429H312.909Z" fill="#FF9D00"/>
<path d="M228.545 442.857H186.364V379.429H165.273V337.143H207.455V294.857H270.727V273.714H291.818V316H270.727V337.143H291.818V358.286H270.727V400.571H228.545V442.857Z" fill="#FFD600"/>
<path d="M207.455 379.429V358.286H228.545V316H249.636V379.429H207.455Z" fill="#FFF1CD"/>
<path d="M165.273 273.714H144.182V294.857H123.091V337.143H144.182V316H165.273V273.714Z" fill="#FF7A00"/>
<path d="M123.091 421.714V379.429H144.182V421.714H165.273V442.857H123.091V421.714Z" fill="#FF7A00"/>
<path d="M186.364 252.571V231.429H207.455V252.571V273.714H186.364V252.571Z" fill="#FF7A00"/>
<path d="M249.636 442.857V421.714H291.818V379.429H312.909V442.857H249.636Z" fill="#FF7A00"/>
<path d="M207.455 316V358.286H186.364V379.429H165.273V337.143H186.364V316H207.455Z" fill="#FFBF00"/>
<path d="M228.545 421.714V442.857H207.455H186.364V400.571H207.455V421.714H228.545Z" fill="#FFBF00"/>
<path d="M291.818 294.857V316H270.727V273.714H291.818V294.857Z" fill="#FFBF00"/>
<path d="M228.545 294.857V316H207.455V273.714H228.545V294.857Z" fill="#FFBF00"/>
</svg>
